!!!OTL: Eierliddchen (218), S. 470
!!!id: T0400
**kern
*clefG2
*k[]
*G:
{8b
=1
8b
8b
8b
8b
=2
4b}
8r
=3
{8b
=4
8b
8b
8b
8b
=5
4b}
8r
=6
{8b
=7
8b
8a
8b
8cc
=8
4ee
8cc}
=9
{8cc
=10
4b
8a
8a
=11
4g}
8r
==
*-
!!!minrhy: 8
!!!meters: 2/4 ]  ZZ[4
!!!cut: Eierliddchen (218), S. 470
!!!reg: Luxemburg
!!!trd: Singendes Volk, Esch-Alzette, 1937 posth.
!!!rhy1: X  XXXX  X_0
!!!rhy2: X  XXXX  X_0
!!!key: T0400  08  G 2/4 ]  ZZ[4
!!!mod: PENTATONIK ]  AMBITUS[6
!!!kad: 3341
!!!akz: 33_33_36_31_
!!!fot: 'a__a__aw_b__
!!!for: 'a__a__a__b__
!!!fok: '-__-__^a_\__
!! PHRAS[AUFTAKTIG]
!!!fkt1: Ansingelied f&uuml;r Volks- und Festtage, Kinderlied
!!!fkt2: erweiterter Kinderliedterno;
!!!fkt3: Rosport, hhh Johann Minden, 19.2.1931, Junglinster]
!! THILL; Mathias
!! PR[38] 2K[0] 2G[13] 3K[13] 3G[0] 4A[0] 4Ü[0] 5A[0] 6K[0] 6G[0]
!! 7K[0] 7G[0] 8A[0] MEHR[0] SI[27] ABS[60] SR[13] SP[13]
!! ST[17] 2k[7] 2g[20] 3k[8] 3g[0] 4d[0] 4ü[0] 5d[0] 6k[0] 6g[0]
!! 7k[0] 7g[0] 8d[0] mehr[0] si[35] dm[-8] sr[27] sp[8]
!! 1F[13] 2F[69] 3F[18] 4F[0] LF[0] 2P[0] 3P[0] 4P[0] TRI[0] DF[3] AB[61]
!! TF[0] U3K[0] U3[0] U4[0] U4Ü[0] U5[0] U6K[0] U6[0] U7K[0] U7[0]
!! N1[21] N2K[7] N2[0] N3K[43] N3[0] N4[30] N4Ü[0] N5[0] N6K[0] N6[0]
!!!n7k: 0] N7[0] O1[0] O2K[0] O2[0] O3K[0] O3[0] HÖ[0
!!!RNB: symbol: &uuml;  = u umlaut (UTF-8: Ã¼)
